assets/images/Increase-Sales.svg

<svg width="80" height="80" viewBox="0 0 80 80" fill="none" xmlns="http://www.w3.org/2000/svg">
<path d="M71.3 10.2001V16.3401C70.58 19.9401 69.71 23.4901 68.34 26.9101C64.58 36.2801 59.4 44.6501 51.28 50.9001C50.24 51.7001 49.84 52.5401 49.89 53.8201C50.17 61.4001 46.36 66.3301 39.71 69.3901C37.85 70.2501 35.85 70.6901 33.9 71.3101H31.67C31.07 70.5101 31.03 69.6401 31.15 68.6701C31.54 65.4401 31.83 62.2001 32.21 58.9701C32.32 58.0401 32.02 57.6701 31.1 57.7201C29.49 57.8101 28.25 57.1201 27.19 55.9501C26.16 54.8101 25.06 53.7301 23.94 52.7001C22.87 51.7201 22.31 50.5601 22.38 49.1201C22.43 48.1001 22.11 47.7201 21 47.8701C17.68 48.3001 14.35 48.6201 11.03 48.9901C9.23995 49.1901 8.48995 48.4201 8.76995 46.6401C8.82995 46.2701 8.90995 45.9101 8.99995 45.5501C10.15 40.6901 12.13 36.3001 16.2 33.1401C19.25 30.7701 22.78 29.9701 26.56 30.2101C27.71 30.2801 28.45 29.8901 29.13 28.9501C30.03 27.7101 31.03 26.5401 32.1 25.4401C40.04 17.3401 49.72 12.3601 60.61 9.56005C63.28 8.87005 66 8.54005 68.76 8.74005C69.81 8.82005 70.97 8.83005 71.3 10.2001ZM56.65 30.0201C56.65 26.5401 53.69 23.5301 50.17 23.4501C46.68 23.3701 43.54 26.4701 43.53 30.0001C43.53 33.4801 46.49 36.4901 50.01 36.5701C53.51 36.6501 56.64 33.5601 56.65 30.0201Z" fill="#008A9B"/>
<path d="M13.24 69.16C10.91 69.23 10.8 69.1899 10.95 67.0999C11.2 63.5699 11.62 60.0699 12.73 56.6899C13.66 53.8499 15.56 52.0599 18.44 51.2899C18.98 51.1499 19.57 50.9599 20.02 51.4199C20.55 51.9599 20.04 52.4499 19.82 52.9299C19.25 54.1699 18.83 55.4299 18.88 56.8199C18.96 59.2499 20.78 61.1099 23.23 61.2099C24.7 61.2699 26.1 60.9799 27.38 60.2199C27.78 59.9899 28.18 59.6299 28.64 60.0099C29.12 60.3899 29.01 60.9399 28.88 61.4399C28.25 63.9099 26.96 65.86 24.54 66.91C21.82 68.09 18.92 68.5199 16.01 68.8799C15 69.0099 13.98 69.0799 13.24 69.1499V69.16Z" fill="#008A9B"/>
</svg>

<?xml version="1.0" encoding="UTF-8"?>
<svg id="Layer_1" data-name="Layer 1" xmlns="http://www.w3.org/2000/svg" xmlns:xlink="http://www.w3.org/1999/xlink" viewBox="0 0 80 80">
  <defs>
    <style>
      .cls-1 {
        fill: url(#linear-gradient);
      }

      .cls-1, .cls-2 {
        stroke-width: 0px;
      }

      .cls-2 {
        fill: url(#linear-gradient-2);
      }
    </style>
    <linearGradient id="linear-gradient" x1="16.91" y1="7.39" x2="70.59" y2="58.87" gradientUnits="userSpaceOnUse">
      <stop offset="0" stop-color="#b1a45d"/>
      <stop offset="1" stop-color="#453e1b"/>
    </linearGradient>
    <linearGradient id="linear-gradient-2" x1="-10.09" y1="35.55" x2="43.59" y2="87.02" xlink:href="#linear-gradient"/>
  </defs>
  <g id="xAmKYz.tif">
    <g>
      <path class="cls-1" d="m71.3,10.2v6.14c-.72,3.6-1.59,7.15-2.96,10.57-3.76,9.37-8.94,17.74-17.06,23.99-1.04.8-1.44,1.64-1.39,2.92.28,7.58-3.53,12.51-10.18,15.57-1.86.86-3.86,1.3-5.81,1.92h-2.23c-.6-.8-.64-1.67-.52-2.64.39-3.23.68-6.47,1.06-9.7.11-.93-.19-1.3-1.11-1.25-1.61.09-2.85-.6-3.91-1.77-1.03-1.14-2.13-2.22-3.25-3.25-1.07-.98-1.63-2.14-1.56-3.58.05-1.02-.27-1.4-1.38-1.25-3.32.43-6.65.75-9.97,1.12-1.79.2-2.54-.57-2.26-2.35.06-.37.14-.73.23-1.09,1.15-4.86,3.13-9.25,7.2-12.41,3.05-2.37,6.58-3.17,10.36-2.93,1.15.07,1.89-.32,2.57-1.26.9-1.24,1.9-2.41,2.97-3.51,7.94-8.1,17.62-13.08,28.51-15.88,2.67-.69,5.39-1.02,8.15-.82,1.05.08,2.21.09,2.54,1.46Zm-14.65,19.82c0-3.48-2.96-6.49-6.48-6.57-3.49-.08-6.63,3.02-6.64,6.55,0,3.48,2.96,6.49,6.48,6.57,3.5.08,6.63-3.01,6.64-6.55Z"/>
      <path class="cls-2" d="m13.24,69.16c-2.33.07-2.44.03-2.29-2.06.25-3.53.67-7.03,1.78-10.41.93-2.84,2.83-4.63,5.71-5.4.54-.14,1.13-.33,1.58.13.53.54.02,1.03-.2,1.51-.57,1.24-.99,2.5-.94,3.89.08,2.43,1.9,4.29,4.35,4.39,1.47.06,2.87-.23,4.15-.99.4-.23.8-.59,1.26-.21.48.38.37.93.24,1.43-.63,2.47-1.92,4.42-4.34,5.47-2.72,1.18-5.62,1.61-8.53,1.97-1.01.13-2.03.2-2.77.27Z"/>
    </g>
  </g>
</svg>
